packages/hms_room_kit/lib/src/assets/icons/permission_lock.svg

<svg width="56" height="56" viewBox="0 0 56 56" fill="none" xmlns="http://www.w3.org/2000/svg">
<g id="Lock/Lock Off">
<path id="Vector" fill-rule="evenodd" clip-rule="evenodd" d="M20.7825 24.1935H41.7726C44.9211 24.1935 47.4972 26.7696 47.4972 29.9181V43.2754C47.4972 46.443 44.9211 49 41.7726 49H15.0579C11.9094 49 9.33333 46.4239 9.33333 43.2754V29.9181C9.33333 26.7696 11.9094 24.1935 15.0579 24.1935H16.9661V18.4689C16.9661 15.6257 18.0156 12.897 19.9238 10.7789C21.832 8.6608 24.4462 7.34415 27.2703 7.05792C30.0944 6.77169 32.9186 7.55405 35.2084 9.23326C37.4982 10.9125 39.0629 13.3931 39.6354 16.1791C39.8453 17.2095 39.1774 18.2208 38.147 18.4307C37.1166 18.6406 36.1052 17.9728 35.8953 16.9423C35.5137 15.0914 34.4642 13.4504 32.9376 12.3054C31.4111 11.1796 29.522 10.6644 27.652 10.8552C25.7629 11.046 24.0264 11.9238 22.7479 13.3359C21.4694 14.7479 20.7825 16.5798 20.7825 18.4689V24.1935ZM13.1497 29.9181C13.1497 28.8686 14.0084 28.0099 15.0579 28.0099H41.7726C42.8221 28.0099 43.6808 28.8686 43.6808 29.9181V43.2754C43.6808 44.3249 42.8221 45.1836 41.7726 45.1836H15.0579C14.0084 45.1836 13.1497 44.3249 13.1497 43.2754V29.9181Z" fill="#EFF0FA"/>
</g>
</svg>

<svg xmlns="http://www.w3.org/2000/svg" width="56" height="56" fill="none" viewBox="0 0 56 56"><path fill="#EFF0FA" fill-rule="evenodd" d="M20.782 24.194h20.99c3.15 0 5.725 2.576 5.725 5.724v13.357A5.73 5.73 0 0 1 41.773 49H15.058c-3.149 0-5.725-2.576-5.725-5.725V29.918c0-3.148 2.576-5.724 5.725-5.724h1.908v-5.725a11.47 11.47 0 0 1 2.958-7.69 11.422 11.422 0 0 1 7.346-3.721 11.469 11.469 0 0 1 7.938 2.175 11.452 11.452 0 0 1 4.427 6.946 1.912 1.912 0 0 1-1.488 2.252 1.912 1.912 0 0 1-2.252-1.489 7.749 7.749 0 0 0-2.957-4.637 7.63 7.63 0 0 0-12.155 6.164v5.724Zm-7.632 5.724c0-1.05.858-1.908 1.908-1.908h26.715c1.05 0 1.908.859 1.908 1.908v13.357c0 1.05-.859 1.909-1.908 1.909H15.058a1.914 1.914 0 0 1-1.908-1.909V29.918Z" clip-rule="evenodd"/></svg>
